plasma/desktoptheme/Arc-Color/icons/plasma.svg

<svg xmlns="http://www.w3.org/2000/svg" width="32" height="32" version="1">
 <defs>
  <style id="current-color-scheme" type="text/css">
   .ColorScheme-Background {color:#2f343f; } .ColorScheme-ButtonBackground { color:#444a58; } .ColorScheme-Highlight { color:#5c87cc; } .ColorScheme-Text { color:#d3dae3; } .ColorScheme-NegativeText { color:#f44336; } .ColorScheme-PositiveText { color:#4caf50; } .ColorScheme-NeutralText { color:#ff9800; }
  </style>
 </defs>
 <g id="22-22-plasma-browser-integration" transform="translate(27,5)">
  <rect style="opacity:0.001" width="22" height="22" x="5" y="5"/>
  <path style="fill:currentColor" class="ColorScheme-Text" d="m 11,7 c -0.554,0 -1,0.446 -1,1 0,0.554 0.446,1 1,1 0.554,0 1,-0.446 1,-1 C 12,7.446 11.554,7 11,7 Z M 17.285156,7 15,9.201172 18.427734,12.5 15,15.798828 17.285156,18 20.714844,14.701172 23,12.5 20.714844,10.298828 Z M 8.5,13 C 7.669006,13 7,13.668994 7,14.5 7,15.330994 7.669006,16 8.5,16 9.331006,16 10,15.330994 10,14.5 10,13.668994 9.331006,13 8.5,13 Z M 21,17 c -2.209143,0 -4,1.790857 -4,4 0,2.209142 1.790857,4 4,4 2.209142,0 4,-1.790858 4,-4 0,-2.209143 -1.790858,-4 -4,-4 z m -0.375,0.796875 c 0.04352,-0.0046 0.09866,0.0026 0.142578,0 0.0052,0.02082 -0.03044,0.09667 -0.08008,0.205078 -0.316086,0.690515 -0.334367,1.499402 -0.04102,1.931641 0.05309,0.07837 0.101563,0.152417 0.101563,0.162109 0,0.0097 -0.05831,0.01953 -0.123047,0.01953 -0.15196,1e-6 -0.296027,-0.09156 -0.589844,-0.324218 -0.130526,-0.103357 -0.299493,-0.189985 -0.365234,-0.203125 -0.103232,-0.02063 -0.130123,-0.01246 -0.263672,0.121093 -0.124254,0.124234 -0.162109,0.192908 -0.162109,0.306641 0,0.431289 0.511159,0.772866 1.46289,0.974609 1.29249,0.273935 1.610834,0.519581 1.646485,1.199219 0.04476,0.852247 -0.408533,1.494696 -1.402344,1.992188 -0.118619,0.0594 -0.194372,0.08237 -0.244141,0.101562 -0.02205,-0.0019 -0.03856,0.0019 -0.06055,0 -0.0084,-0.02634 -0.02148,-0.0873 -0.02148,-0.203125 0,-0.452654 -0.176465,-0.919134 -0.445312,-1.179687 -0.07216,-0.06995 -0.274229,-0.217103 -0.447266,-0.324219 -0.173034,-0.10711 -0.347815,-0.232069 -0.386719,-0.285156 -0.06446,-0.08809 -0.06906,-0.141948 -0.01953,-0.304688 0.09028,-0.297225 0.197365,-0.46259 0.40625,-0.65039 0.109511,-0.09846 0.219881,-0.181633 0.24414,-0.183594 0.02426,-0.0019 -0.140412,-0.05118 -0.386718,-0.101563 -0.246293,-0.05049 -0.606692,-0.155238 -0.792969,-0.222656 -0.340627,-0.123251 -0.801233,-0.383054 -0.976563,-0.570313 -0.0074,-0.008 -0.01308,-0.01249 -0.01953,-0.01953 0.251204,-1.000641 0.956081,-1.821576 1.890625,-2.216797 0.195542,-0.08271 0.396587,-0.138116 0.609375,-0.18164 0.105992,-0.02167 0.214779,-0.03184 0.324219,-0.04297 z M 13,19 c -1.108,0 -2,0.892 -2,2 0,1.108 0.892,2 2,2 1.108,0 2,-0.892 2,-2 0,-1.108 -0.892,-2 -2,-2 z m 10.675781,0.322266 c 0.07641,0.04723 0.364909,0.672095 0.447266,0.976562 0.106327,0.393069 0.09863,1.072418 0,1.462891 -0.03754,0.148616 -0.08556,0.287383 -0.101563,0.304687 -0.016,0.01731 -0.07431,-0.08018 -0.142578,-0.201172 -0.06828,-0.120967 -0.285553,-0.379077 -0.466797,-0.570312 -0.523149,-0.552029 -0.605857,-0.838731 -0.386718,-1.279297 0.110513,-0.222163 0.591254,-0.729856 0.65039,-0.693359 z"/>
 </g>
 <g id="plasma-browser-integration">
  <rect style="opacity:0.001" width="32" height="32" x="0" y="0"/>
  <path style="fill:currentColor" class="ColorScheme-Text" d="M 8.5 2 C 7.669 2 7 2.669 7 3.5 C 7 4.331 7.669 5 8.5 5 C 9.3310001 5 10 4.331 10 3.5 C 10 2.669 9.3310001 2 8.5 2 z M 17.427734 2 L 14 5.4023438 L 19.142578 10.5 L 14 15.597656 L 17.427734 19 L 22.572266 13.902344 L 26 10.5 L 22.572266 7.0976562 L 17.427734 2 z M 4.5 11 C 3.11501 11 2 12.11499 2 13.5 C 2 14.884989 3.11501 16 4.5 16 C 5.88501 16 7 14.884989 7 13.5 C 7 12.11499 5.8850101 11 4.5 11 z M 24 18 C 20.686516 18 18 20.686515 18 24 C 18 27.313481 20.686516 30 24 30 C 27.313482 30 30 27.313481 30 24 C 30 20.686515 27.313482 17.999999 24 18 z M 23.439453 19.195312 C 23.504733 19.188412 23.586471 19.199313 23.652344 19.195312 C 23.660144 19.226533 23.605707 19.339352 23.53125 19.501953 C 23.057154 20.537653 23.0307 21.752078 23.470703 22.400391 C 23.550333 22.517938 23.623047 22.629994 23.623047 22.644531 C 23.623047 22.659081 23.536561 22.673828 23.439453 22.673828 C 23.21153 22.673829 22.993429 22.534509 22.552734 22.185547 C 22.356959 22.030522 22.104463 21.902521 22.005859 21.882812 C 21.851021 21.851872 21.809685 21.864142 21.609375 22.064453 C 21.423007 22.250791 21.367188 22.352851 21.367188 22.523438 C 21.367188 23.170327 22.133051 23.681782 23.560547 23.984375 C 25.499148 24.39525 25.975825 24.765769 26.029297 25.785156 C 26.096437 27.063437 25.416394 28.025297 23.925781 28.771484 C 23.747864 28.860574 23.635195 28.895043 23.560547 28.923828 C 23.527477 28.920928 23.503683 28.926728 23.470703 28.923828 C 23.458103 28.884328 23.439453 28.792865 23.439453 28.619141 C 23.439453 27.940207 23.172773 27.242365 22.769531 26.851562 C 22.661299 26.746645 22.359146 26.525897 22.099609 26.365234 C 21.840076 26.204581 21.577883 26.015173 21.519531 25.935547 C 21.422851 25.803423 21.415942 25.724562 21.490234 25.480469 C 21.625644 25.034662 21.786303 24.785587 22.099609 24.503906 C 22.263864 24.356227 22.428458 24.233411 22.464844 24.230469 C 22.501234 24.227569 22.254198 24.153697 21.884766 24.078125 C 21.515351 24.002395 20.976661 23.843309 20.697266 23.742188 C 20.186362 23.557325 19.495398 23.16759 19.232422 22.886719 C 19.221322 22.874719 19.210842 22.869935 19.201172 22.859375 C 19.577951 21.358518 20.635391 20.125993 22.037109 19.533203 C 22.330401 19.409147 22.632013 19.325048 22.951172 19.259766 C 23.110149 19.227266 23.275304 19.212003 23.439453 19.195312 z M 11 21 C 9.3380001 21 8 22.337999 8 24 C 8 25.661999 9.3380001 27 11 27 C 12.662 27 14 25.661999 14 24 C 14 22.337999 12.662 21 11 21 z M 28.013672 21.484375 C 28.128279 21.555215 28.562021 22.492551 28.685547 22.949219 C 28.845028 23.538782 28.833482 24.55691 28.685547 25.142578 C 28.629247 25.365487 28.557206 25.575608 28.533203 25.601562 C 28.509203 25.627533 28.420753 25.47835 28.318359 25.296875 C 28.215942 25.115437 27.889034 24.730192 27.617188 24.443359 C 26.832518 23.615374 26.708424 23.184242 27.037109 22.523438 C 27.202867 22.190217 27.924975 21.429634 28.013672 21.484375 z"/>
 </g>
</svg>

<?xml version="1.0" encoding="UTF-8"?>
<svg width="32" height="32" version="1" xmlns="http://www.w3.org/2000/svg">
 <defs>
  <style id="current-color-scheme" type="text/css">.ColorScheme-Background {color:#2f343f; } .ColorScheme-ButtonBackground { color:#444a58; } .ColorScheme-Highlight { color:#5c87cc; } .ColorScheme-Text { color:#d3dae3; } .ColorScheme-NegativeText { color:#f44336; } .ColorScheme-PositiveText { color:#4caf50; } .ColorScheme-NeutralText { color:#ff9800; }</style>
 </defs>
 <g id="22-22-plasma-browser-integration" transform="translate(27,5)">
  <rect x="5" y="5" width="22" height="22" opacity=".001"/>
  <path class="ColorScheme-Text" d="m11 7c-0.554 0-1 0.446-1 1s0.446 1 1 1 1-0.446 1-1-0.446-1-1-1zm6.2852 0-2.2852 2.2012 3.4277 3.2988-3.4277 3.2988 2.2852 2.2012 3.4297-3.2988 2.2852-2.2012-2.2852-2.2012zm-8.7852 6c-0.83099 0-1.5 0.66899-1.5 1.5 0 0.83099 0.66901 1.5 1.5 1.5 0.83101 0 1.5-0.66901 1.5-1.5 0-0.83101-0.66899-1.5-1.5-1.5zm12.5 4c-2.2091 0-4 1.7909-4 4 0 2.2091 1.7909 4 4 4 2.2091 0 4-1.7909 4-4 0-2.2091-1.7909-4-4-4zm-0.375 0.79688c0.04352-0.0046 0.09866 0.0026 0.14258 0 0.0052 0.02082-0.03044 0.09667-0.08008 0.20508-0.31609 0.69052-0.33437 1.4994-0.04102 1.9316 0.05309 0.07837 0.10156 0.15242 0.10156 0.16211 0 0.0097-0.05831 0.01953-0.12305 0.01953-0.15196 1e-6 -0.29603-0.09156-0.58984-0.32422-0.13053-0.10336-0.29949-0.18998-0.36523-0.20312-0.10323-0.02063-0.13012-0.01246-0.26367 0.12109-0.12425 0.12423-0.16211 0.19291-0.16211 0.30664 0 0.43129 0.51116 0.77287 1.4629 0.97461 1.2925 0.27394 1.6108 0.51958 1.6465 1.1992 0.04476 0.85225-0.40853 1.4947-1.4023 1.9922-0.11862 0.0594-0.19437 0.08237-0.24414 0.10156-0.02205-0.0019-0.03856 0.0019-0.06055 0-0.0084-0.02634-0.02148-0.0873-0.02148-0.20312 0-0.45265-0.17646-0.91913-0.44531-1.1797-0.07216-0.06995-0.27423-0.2171-0.44727-0.32422-0.17303-0.10711-0.34782-0.23207-0.38672-0.28516-0.06446-0.08809-0.06906-0.14195-0.01953-0.30469 0.09028-0.29722 0.19736-0.46259 0.40625-0.65039 0.10951-0.09846 0.21988-0.18163 0.24414-0.18359 0.02426-0.0019-0.14041-0.05118-0.38672-0.10156-0.24629-0.05049-0.60669-0.15524-0.79297-0.22266-0.34063-0.12325-0.80123-0.38305-0.97656-0.57031-0.0074-8e-3 -0.01308-0.01249-0.01953-0.01953 0.2512-1.0006 0.95608-1.8216 1.8906-2.2168 0.19554-0.08271 0.39659-0.13812 0.60938-0.18164 0.10599-0.02167 0.21478-0.03184 0.32422-0.04297zm-7.625 1.2031c-1.108 0-2 0.892-2 2s0.892 2 2 2 2-0.892 2-2-0.892-2-2-2zm10.676 0.32227c0.07641 0.04723 0.36491 0.6721 0.44727 0.97656 0.10633 0.39307 0.09863 1.0724 0 1.4629-0.03754 0.14862-0.08556 0.28738-0.10156 0.30469-0.016 0.01731-0.07431-0.08018-0.14258-0.20117-0.06828-0.12097-0.28555-0.37908-0.4668-0.57031-0.52315-0.55203-0.60586-0.83873-0.38672-1.2793 0.11051-0.22216 0.59125-0.72986 0.65039-0.69336z" fill="currentColor"/>
 </g>
 <g id="plasma-browser-integration">
  <rect width="32" height="32" opacity=".001"/>
  <path class="ColorScheme-Text" d="m8.5 2c-0.831 0-1.5 0.669-1.5 1.5s0.669 1.5 1.5 1.5c0.831 0 1.5-0.669 1.5-1.5s-0.669-1.5-1.5-1.5zm8.9277 0-3.4277 3.4023 5.1426 5.0977-5.1426 5.0977 3.4277 3.4023 5.1445-5.0977 3.4277-3.4023-3.4277-3.4023-5.1445-5.0977zm-12.928 9c-1.385 0-2.5 1.115-2.5 2.5 0 1.385 1.115 2.5 2.5 2.5 1.385 0 2.5-1.115 2.5-2.5 0-1.385-1.115-2.5-2.5-2.5zm19.5 7c-3.3135 0-6 2.6865-6 6 0 3.3135 2.6865 6 6 6 3.3135 0 6-2.6865 6-6 0-3.3135-2.6865-6-6-6zm-0.56055 1.1953c0.06528-0.0069 0.14702 0.004001 0.21289 0 0.0078 0.031221-0.046637 0.14404-0.12109 0.30664-0.4741 1.0357-0.50055 2.2501-0.060547 2.8984 0.07963 0.11755 0.15234 0.2296 0.15234 0.24414 0 0.01455-0.086486 0.029297-0.18359 0.029297-0.22792 1e-6 -0.44602-0.13932-0.88672-0.48828-0.19578-0.15502-0.44827-0.28303-0.54688-0.30274-0.15484-0.03094-0.19617-0.01867-0.39648 0.18164-0.18637 0.18634-0.24219 0.2884-0.24219 0.45898 0 0.64689 0.76586 1.1583 2.1934 1.4609 1.9386 0.41088 2.4153 0.78139 2.4688 1.8008 0.06714 1.2783-0.6129 2.2401-2.1035 2.9863-0.17792 0.08909-0.29059 0.12356-0.36523 0.15234-0.03307-0.0029-0.056864 0.0029-0.089844 0-0.0126-0.0395-0.03125-0.13096-0.03125-0.30469 0-0.67893-0.26668-1.3768-0.66992-1.7676-0.10823-0.10492-0.41038-0.32566-0.66992-0.48633-0.25953-0.16065-0.52173-0.35006-0.58008-0.42969-0.09668-0.13212-0.10359-0.21098-0.029297-0.45508 0.13541-0.44581 0.29607-0.69488 0.60938-0.97656 0.16426-0.14768 0.32885-0.2705 0.36524-0.27344 0.03639-0.0029-0.21065-0.076772-0.58008-0.15234-0.36942-0.07573-0.9081-0.23482-1.1875-0.33594-0.5109-0.18486-1.2019-0.5746-1.4648-0.85547-0.0111-0.012-0.02158-0.016784-0.03125-0.027344 0.37678-1.5009 1.4342-2.7334 2.8359-3.3262 0.29329-0.12406 0.5949-0.20816 0.91406-0.27344 0.15898-0.0325 0.32413-0.047763 0.48828-0.064454zm-12.439 1.8047c-1.662 0-3 1.338-3 3 0 1.662 1.338 3 3 3 1.662 0 3-1.338 3-3 0-1.662-1.338-3-3-3zm17.014 0.48438c0.11461 0.07084 0.54835 1.0082 0.67188 1.4648 0.15948 0.58956 0.14794 1.6077 0 2.1934-0.0563 0.22291-0.12834 0.43303-0.15234 0.45898-0.024 0.025971-0.11245-0.12321-0.21484-0.30469-0.10242-0.18144-0.42932-0.56668-0.70117-0.85352-0.78467-0.82798-0.90876-1.2591-0.58008-1.9199 0.16576-0.33322 0.88787-1.0938 0.97656-1.0391z" fill="currentColor"/>
 </g>
</svg>
